dist/svgs/unicons/line/headphones-alt.svg

<svg xmlns="http://www.w3.org/2000/svg" viewBox="0 0 24 24"><path d="M20 13.18V11a8 8 0 00-16 0v2.18A3 3 0 002 16v2a3 3 0 003 3h3a1 1 0 001-1v-6a1 1 0 00-1-1H6v-2a6 6 0 0112 0v2h-2a1 1 0 00-1 1v6a1 1 0 001 1h3a3 3 0 003-3v-2a3 3 0 00-2-2.82zM7 15v4H5a1 1 0 01-1-1v-2a1 1 0 011-1zm13 3a1 1 0 01-1 1h-2v-4h2a1 1 0 011 1z"/></svg>

<svg xmlns="http://www.w3.org/2000/svg" viewBox="0 0 24 24"><path d="M20,13.18V11A8,8,0,0,0,4,11v2.18A3,3,0,0,0,2,16v2a3,3,0,0,0,3,3H8a1,1,0,0,0,1-1V14a1,1,0,0,0-1-1H6V11a6,6,0,0,1,12,0v2H16a1,1,0,0,0-1,1v6a1,1,0,0,0,1,1h3a3,3,0,0,0,3-3V16A3,3,0,0,0,20,13.18ZM7,15v4H5a1,1,0,0,1-1-1V16a1,1,0,0,1,1-1Zm13,3a1,1,0,0,1-1,1H17V15h2a1,1,0,0,1,1,1Z"/></svg>
